images/Produced-By-Human-Not-By-AI-Badge-black.svg

<svg width="131" height="42" viewBox="0 0 131 42" fill="none" xmlns="http://www.w3.org/2000/svg">
<path d="M0.5 0.5H116C124.008 0.5 130.5 6.99187 130.5 15V41.5H15C6.99187 41.5 0.5 35.0081 0.5 27V0.5Z" fill="black" stroke="#ACACAC"/>
<path fill-rule="evenodd" clip-rule="evenodd" d="M32.8705 21.5C32.8705 26.6752 28.6752 30.8705 23.5 30.8705C18.3248 30.8705 14.1295 26.6752 14.1295 21.5C14.1295 16.3248 18.3248 12.1295 23.5 12.1295C28.6752 12.1295 32.8705 16.3248 32.8705 21.5ZM35 21.5C35 27.8513 29.8513 33 23.5 33C17.1487 33 12 27.8513 12 21.5C12 15.1487 17.1487 10 23.5 10C29.8513 10 35 15.1487 35 21.5ZM18 24.7606C21.4984 27.7465 26.5016 27.7465 30 24.7606L28.6474 23C25.9376 25.3128 22.0624 25.3128 19.3526 23L18 24.7606ZM19 21V18H21V21H19ZM26 18V21H28V18H26Z" fill="white"/>
<path d="M51.5548 15.9804C50.8705 15.6078 49.7231 15.1373 48.5858 14.7745L49.0588 14.2843C50.1961 14.6373 51.4341 15.098 52.1688 15.4706L51.5548 15.9804Z" fill="white"/>
<path d="M43 15.4608C44.0769 15.2059 45.4255 14.7059 46.0999 14.2843L46.7943 14.7157C45.9489 15.2157 44.6003 15.7255 43.5234 16C43.4126 15.8529 43.161 15.598 43 15.4608Z" fill="white"/>
<path d="M57.2872 7.20854C57.2887 7.14125 57.2901 7.07757 57.2916 7.01961H58.127L58.126 7.06206C58.1179 7.41233 58.107 7.88543 58.062 8.43623C58.2039 9.58915 58.8167 13.7476 62.4044 15.3039C62.183 15.4706 61.9615 15.7255 61.8508 15.9314C59.3205 14.7799 58.2303 12.3598 57.7354 10.5279C57.2612 12.4903 56.1895 14.6847 53.7288 15.9706C53.5979 15.7745 53.3463 15.549 53.1148 15.3922C57.1495 13.4035 57.2497 8.89545 57.2872 7.20854Z" fill="white"/>
<path d="M63.753 15.8039C64.679 14.2353 64.8199 11.902 64.8199 10.3039V8.20588H72.2475V7.52941H64.0751V10.3039C64.0751 11.8235 63.9845 13.9314 63.0988 15.4314C63.2901 15.5 63.6121 15.6863 63.753 15.8039Z" fill="white"/>
<path fill-rule="evenodd" clip-rule="evenodd" d="M68.0908 8.31373C68.0001 8.57897 67.8525 8.92173 67.7036 9.22549H65.7257V12.7843H68.1915V15.1863C68.1915 15.3039 68.1512 15.3431 68.0003 15.3529C67.8493 15.3529 67.3259 15.3529 66.7321 15.3431C66.8328 15.5294 66.9334 15.8039 66.9636 15.9902C67.7486 15.9902 68.2418 15.9902 68.5437 15.8824C68.8457 15.7745 68.9262 15.5784 68.9262 15.1961V12.7843H71.4423V9.22549H68.518C68.6648 8.98303 68.8161 8.7085 68.9564 8.44118L68.0908 8.31373ZM66.4705 11.2745H70.6774V12.2059H66.4705V11.2745ZM66.4705 9.81373H70.6774V10.7255H66.4705V9.81373Z" fill="white"/>
<path d="M69.7817 13.6078C70.3855 14.2353 71.1907 15.1176 71.5732 15.6373L72.2072 15.2549C71.7946 14.7451 70.9894 13.8922 70.3755 13.2941L69.7817 13.6078Z" fill="white"/>
<path d="M66.4805 13.2745C66.0377 13.9314 65.3734 14.6765 64.7695 15.1765C64.9507 15.2745 65.2627 15.4706 65.4137 15.5784C65.9773 15.049 66.6818 14.2255 67.1951 13.5098L66.4805 13.2745Z" fill="white"/>
<path d="M80.9835 15.2745C81.1747 15.2647 81.2552 15.2059 81.2552 15.0294V7.13725H82V15.0294C82 15.5196 81.8692 15.7255 81.5471 15.8431C81.215 15.9608 80.6514 15.9706 79.7154 15.9706C79.6751 15.7843 79.5543 15.4608 79.4436 15.2647C80.1481 15.2941 80.7923 15.2843 80.9835 15.2745Z" fill="white"/>
<path d="M76.8772 13.0392C77.0009 12.8928 77.0936 12.4211 77.1689 11.2255H74.985V14.7745C74.985 15.1471 75.0756 15.2157 75.5889 15.2157H77.3502C77.8132 15.2157 77.8937 15.0098 77.944 13.8333C78.105 13.9608 78.407 14.0784 78.6083 14.1176C78.5177 15.4804 78.2963 15.8627 77.4005 15.8627H75.5285C74.5523 15.8627 74.2503 15.6471 74.2503 14.7843V10.5686H77.9239C77.9239 10.5686 77.9138 10.7745 77.9037 10.8627C77.8132 12.5686 77.7125 13.2255 77.481 13.4706C77.32 13.6471 77.159 13.7059 76.9074 13.7255C76.696 13.7451 76.3035 13.7451 75.911 13.7255C75.8908 13.5294 75.8204 13.2647 75.7097 13.0882C76.0921 13.1275 76.4444 13.1373 76.5853 13.1373C76.7161 13.1373 76.7966 13.1176 76.8772 13.0392Z" fill="white"/>
<path d="M76.4637 7.6292C76.5351 7.48879 76.6025 7.34757 76.6658 7.20588L75.9714 7C75.4379 8.26471 74.361 9.62745 73.0929 10.5196C73.2539 10.6275 73.5257 10.8824 73.6465 11.0294C74.6418 10.2761 75.4974 9.29021 76.1334 8.22706C76.9288 9.06486 77.8138 10.0904 78.256 10.7451L78.7995 10.2451C78.3152 9.55129 77.3111 8.47342 76.4637 7.6292Z" fill="white"/>
<path fill-rule="evenodd" clip-rule="evenodd" d="M43.1912 14.1275V13.5H44.6405V9.06863H47.1768V8.45098H43.473V7.81373H47.1768V7H47.9215V7.81373H51.8668V8.45098H47.9215V9.06863H50.7094V13.5H52.1285V14.1275H43.1912ZM45.3652 13.5H49.9546V12.8137H45.3652V13.5ZM45.3652 12.3431H49.9546V11.7549H45.3652V12.3431ZM45.3652 11.2745H49.9546V10.6961H45.3652V11.2745ZM45.3652 10.2353H49.9546V9.58824H45.3652V10.2353Z" fill="white"/>
<path d="M79.2826 13.5784V8.12745H80.0072V13.5784H79.2826Z" fill="white"/>
<path fill-rule="evenodd" clip-rule="evenodd" d="M105.32 26.2505C105.32 25.9898 105.336 25.4196 105.336 25.4196H101.424V23.8717H105.573C105.764 26.2238 106.11 28.471 106.651 30.2984C105.776 31.2876 104.759 32.1157 103.612 32.7515C104.107 33.2077 104.953 34.2016 105.288 34.7067C106.138 34.1597 106.93 33.5082 107.658 32.7639C108.338 33.9391 109.193 34.6415 110.254 34.6415C111.898 34.6415 112.649 33.9572 113 30.78C112.377 30.5356 111.563 29.9817 111.036 29.4277C110.956 31.4155 110.765 32.2301 110.445 32.2301C110.06 32.2301 109.67 31.686 109.312 30.7655C110.465 29.1244 111.389 27.1985 112.058 25.0611L109.711 24.4908C109.396 25.6095 108.983 26.659 108.478 27.6243C108.264 26.4884 108.09 25.2105 107.974 23.8717H112.84V21.5418H111.142L111.946 20.6945C111.387 20.1568 110.27 19.4399 109.455 19L108.05 20.4175C108.553 20.7329 109.148 21.1437 109.647 21.5418H107.835C107.811 20.7923 107.808 20.0385 107.827 19.2933H105.384C105.387 20.0364 105.403 20.7892 105.433 21.5418H98.9812V26.4297C98.9812 28.5642 98.9014 31.4481 97.7199 33.3707C98.2468 33.6477 99.3006 34.5275 99.6997 35C100.514 33.7498 100.957 32.0088 101.189 30.2753C101.506 30.8638 101.745 31.7506 101.775 32.4257C102.51 32.4257 103.18 32.4094 103.612 32.3279C104.091 32.2301 104.458 32.0672 104.809 31.5947C105.192 31.0733 105.272 29.5743 105.32 26.2505ZM101.197 30.2141C101.316 29.3052 101.378 28.4 101.406 27.5703H103.058C103.023 29.1922 102.963 29.8644 102.829 30.0631C102.701 30.2261 102.558 30.2749 102.35 30.2749C102.102 30.2749 101.674 30.2596 101.197 30.2141Z" fill="white"/>
<path d="M86.8673 22.112C87.1314 21.4187 87.3672 20.705 87.565 19.9939L85.1541 19.4399C84.6112 21.6395 83.5893 23.8717 82.3599 25.2077C82.9507 25.5336 83.9885 26.2342 84.4515 26.6415C84.9297 26.0332 85.4007 25.2744 85.839 24.4257H88.9062V26.9185H84.7709V29.1996H88.9062V32.002H82.8708V34.3157H97.4005V32.002H91.3332V29.1996H95.9156V26.9185H91.3332V24.4257H96.5543V22.112H91.3332V19.277H88.9062V22.112H86.8673Z" fill="white"/>
<path d="M47.3436 28.4645C47.4377 28.0285 47.4856 27.6141 47.4988 27.2444H43.8462V25.11H47.5026V23.4807H43.6866V21.2811H47.5026V19.3585H49.8018V27C49.8018 29.8513 48.9396 33.0611 45.0278 34.9837C44.6446 34.4134 43.9261 33.6802 43.3672 33.224C44.7784 32.6761 45.7414 31.786 46.3804 30.8057C45.6568 30.9237 44.9507 31.0375 44.2921 31.1436L43.4151 31.2851L43 28.9226C44.1273 28.8236 45.7056 28.6496 47.3436 28.4645Z" fill="white"/>
<path fill-rule="evenodd" clip-rule="evenodd" d="M72.6755 34.3305L67.632 19.7976H64.2697L59.1875 34.3305H62.2986L63.2841 31.3431H68.5306L69.4484 34.3305H72.6755ZM65.9218 23.1202L67.6996 28.8388H64.0861L65.9218 23.1202Z" fill="white"/>
<path d="M53.7456 19.3585V21.2811H57.9289V23.4807H53.7456V25.11H57.5457V27.2444H53.7456V28.9063H58.2163V31.1059H53.7456V34.7556H51.4144V19.3585H53.7456Z" fill="white"/>
<path d="M75.2125 22.2696V31.8618H73.4582V34.3339H79.719V31.8618H78.169V22.2696H79.719V19.7976H73.4582V22.2696H75.2125Z" fill="white"/>
</svg>

<svg width="131" height="42" fill="none" xmlns="http://www.w3.org/2000/svg"><path d="M.5.5H116c8.008 0 14.5 6.492 14.5 14.5v26.5H15C6.992 41.5.5 35.008.5 27V.5Z" fill="#000" stroke="#ACACAC"/><path fill-rule="evenodd" clip-rule="evenodd" d="M32.87 21.5a9.37 9.37 0 1 1-18.74 0 9.37 9.37 0 0 1 18.74 0Zm2.13 0C35 27.851 29.851 33 23.5 33S12 27.851 12 21.5 17.149 10 23.5 10 35 15.149 35 21.5Zm-17 3.26c3.498 2.986 8.502 2.986 12 0L28.647 23c-2.71 2.313-6.585 2.313-9.294 0L18 24.76ZM19 21v-3h2v3h-2Zm7-3v3h2v-3h-2Z" fill="#fff"/><path d="M51.555 15.98c-.684-.372-1.832-.843-2.97-1.206l.474-.49c1.137.353 2.375.814 3.11 1.187l-.614.51ZM43 15.46c1.077-.254 2.425-.754 3.1-1.176l.694.432c-.845.5-2.194 1.01-3.27 1.284a4.39 4.39 0 0 0-.524-.54ZM57.287 7.209l.005-.19h.835l-.001.043c-.008.35-.019.823-.064 1.374.142 1.153.755 5.312 4.342 6.868a2.16 2.16 0 0 0-.553.627c-2.53-1.151-3.62-3.571-4.116-5.403-.474 1.962-1.545 4.157-4.006 5.443-.131-.197-.383-.422-.614-.579 4.035-1.989 4.135-6.497 4.172-8.183ZM63.753 15.804c.926-1.569 1.067-3.902 1.067-5.5V8.206h7.428v-.677h-8.173v2.775c0 1.52-.09 3.627-.976 5.127.191.069.513.255.654.373Z" fill="#fff"/><path fill-rule="evenodd" clip-rule="evenodd" d="M68.09 8.314c-.09.265-.237.608-.386.911h-1.978v3.56h2.466v2.401c0 .118-.04.157-.192.167-.15 0-.674 0-1.268-.01.1.186.201.46.232.647.785 0 1.278 0 1.58-.108.302-.107.382-.304.382-.686v-2.412h2.516V9.225h-2.924c.147-.242.298-.516.438-.784l-.865-.127Zm-1.62 2.96h4.207v.932H66.47v-.931Zm0-1.46h4.207v.912H66.47v-.912Z" fill="#fff"/><path d="M69.782 13.608c.603.627 1.409 1.51 1.791 2.03l.634-.383c-.412-.51-1.218-1.363-1.831-1.96l-.594.313ZM66.48 13.274a9.751 9.751 0 0 1-1.71 1.903c.18.098.493.294.644.401.563-.529 1.268-1.352 1.781-2.068l-.714-.236ZM80.984 15.274c.19-.01.271-.068.271-.245V7.137H82v7.892c0 .49-.13.697-.453.814-.332.118-.896.128-1.832.128a3.076 3.076 0 0 0-.271-.706c.704.03 1.348.02 1.54.01ZM76.877 13.04c.124-.147.217-.619.292-1.814h-2.184v3.548c0 .373.09.442.604.442h1.761c.463 0 .544-.206.594-1.383.161.128.463.245.664.285-.09 1.362-.312 1.745-1.208 1.745h-1.872c-.976 0-1.278-.216-1.278-1.079V10.57h3.674s-.01.205-.02.294c-.09 1.706-.191 2.363-.423 2.608-.161.176-.322.235-.574.255-.211.02-.603.02-.996 0-.02-.197-.09-.461-.201-.638.382.04.734.05.875.05.131 0 .212-.02.292-.099Z" fill="#fff"/><path d="M76.464 7.63c.071-.141.139-.282.202-.424L75.97 7c-.533 1.265-1.61 2.627-2.878 3.52.16.107.433.362.553.51a9.952 9.952 0 0 0 2.487-2.803c.796.838 1.68 1.863 2.123 2.518l.543-.5c-.484-.694-1.488-1.772-2.335-2.616Z" fill="#fff"/><path fill-rule="evenodd" clip-rule="evenodd" d="M43.191 14.127V13.5h1.45V9.069h2.536V8.45h-3.704v-.637h3.704V7h.745v.814h3.945v.637h-3.945v.618h2.787V13.5h1.42v.627H43.19Zm2.174-.627h4.59v-.686h-4.59v.686Zm0-1.157h4.59v-.588h-4.59v.588Zm0-1.069h4.59v-.578h-4.59v.579Zm0-1.039h4.59v-.647h-4.59v.647Z" fill="#fff"/><path d="M79.283 13.578v-5.45h.724v5.45h-.724Z" fill="#fff"/><path fill-rule="evenodd" clip-rule="evenodd" d="M105.32 26.25c0-.26.016-.83.016-.83h-3.912v-1.548h4.149c.191 2.352.537 4.599 1.078 6.426a11.488 11.488 0 0 1-3.039 2.454c.495.456 1.341 1.45 1.676 1.955a13.657 13.657 0 0 0 2.37-1.943c.68 1.175 1.535 1.877 2.596 1.877 1.644 0 2.395-.684 2.746-3.861-.623-.244-1.437-.798-1.964-1.352-.08 1.988-.271 2.802-.591 2.802-.385 0-.775-.544-1.133-1.464 1.153-1.642 2.077-3.567 2.746-5.705l-2.347-.57a16.263 16.263 0 0 1-1.233 3.133 38.465 38.465 0 0 1-.504-3.752h4.866v-2.33h-1.698l.804-.848c-.559-.537-1.676-1.254-2.491-1.694l-1.405 1.418c.503.315 1.098.726 1.597 1.124h-1.812a39.215 39.215 0 0 1-.008-2.249h-2.443c.003.743.019 1.496.049 2.249h-6.452v4.888c0 2.134-.08 5.018-1.261 6.94.527.278 1.58 1.158 1.98 1.63.814-1.25 1.257-2.991 1.489-4.725.317.589.556 1.476.586 2.15.735 0 1.405-.016 1.837-.097.479-.098.846-.26 1.197-.733.383-.522.463-2.02.511-5.345Zm-4.123 3.964c.119-.909.181-1.814.209-2.644h1.652c-.035 1.622-.095 2.294-.229 2.493-.128.163-.271.212-.479.212-.248 0-.676-.015-1.153-.06Z" fill="#fff"/><path d="M86.867 22.112c.264-.693.5-1.407.698-2.118l-2.41-.554c-.544 2.2-1.566 4.432-2.795 5.768.59.326 1.629 1.026 2.091 1.434.479-.609.95-1.368 1.388-2.216h3.067v2.493h-4.135v2.28h4.135v2.803h-6.035v2.314H97.4v-2.314h-6.068V29.2h4.583v-2.281h-4.583v-2.493h5.221v-2.314h-5.22v-2.835h-2.428v2.835h-2.039ZM47.344 28.465c.094-.436.142-.85.155-1.22h-3.653V25.11h3.657v-1.63h-3.816v-2.199h3.816V19.36h2.299V27c0 2.851-.862 6.061-4.774 7.984-.383-.57-1.102-1.304-1.66-1.76 1.41-.548 2.373-1.438 3.012-2.418l-2.088.338-.877.141L43 28.923c1.127-.1 2.706-.273 4.344-.458Z" fill="#fff"/><path fill-rule="evenodd" clip-rule="evenodd" d="m72.675 34.33-5.043-14.532H64.27L59.188 34.33h3.11l.986-2.988h5.247l.917 2.988h3.228Zm-6.753-11.21L67.7 28.84h-3.614l1.836-5.719Z" fill="#fff"/><path d="M53.746 19.358v1.923h4.183v2.2h-4.183v1.629h3.8v2.134h-3.8v1.662h4.47v2.2h-4.47v3.65h-2.332V19.358h2.332ZM75.213 22.27v9.592h-1.755v2.472h6.261v-2.472h-1.55V22.27h1.55v-2.472h-6.26v2.472h1.754Z" fill="#fff"/></svg>
